cached_logos/netlify.svg

<?xml version="1.0" encoding="UTF-8" standalone="no"?>
<svg   viewBox="-3.3600000000000136 -1.2000000000000028 174.72 62.400000000000006" version="1.1" xmlns="http://www.w3.org/2000/svg" xmlns:xlink="http://www.w3.org/1999/xlink">
    <!-- Generator: Sketch 39.1 (31720) - http://www.bohemiancoding.com/sketch -->
    <title>full-logo-light</title>
    <desc>Created with Sketch.</desc>
    <defs>
        <radialGradient cx="50%" cy="0%" fx="50%" fy="0%" r="100%" id="radialGradient-1">
            <stop stop-color="#20C6B7" offset="0%"></stop>
            <stop stop-color="#4D9ABF" offset="100%"></stop>
        </radialGradient>
        <linearGradient x1="67.0275807%" y1="84.7140915%" x2="67.027578%" y2="0%" id="linearGradient-2">
            <stop stop-color="#313D3E" offset="0%"></stop>
            <stop stop-color="#425253" offset="100%"></stop>
        </linearGradient>
    </defs>
    <g id="Press" stroke="none" stroke-width="1" fill="none" fill-rule="evenodd">
        <g id="press-v4" transform="translate(-276.000000, -1440.000000)">
            <g id="logo-resources" transform="translate(247.000000, 1109.000000)">
                <g id="Group-14" transform="translate(3.000000, 236.000000)">
                    <g id="Group-14-Copy-5">
                        <g id="full-logo-light" transform="translate(26.000000, 95.000000)">
                            <g id="logo-v1-01">
                                <g id="Layer_1">
                                    <g id="Page-1_1_">
                                        <g id="logo">
                                            <g id="Page-1">
                                                <g id="logo-text-dark_jm">
                                                    <path d="M42.3898785,21.2521008 C42.6953912,21.4033613 42.949985,21.605042 43.1536601,21.8319328 C43.1791195,21.8571429 43.1791195,21.8571429 43.2045789,21.8571429 L43.2300383,21.8571429 L49.0856972,19.3613445 C49.1111566,19.3361345 49.136616,19.3109244 49.136616,19.2857143 C49.136616,19.2605042 49.136616,19.2352941 49.1111566,19.210084 L43.6373885,13.789916 C43.6119291,13.7647059 43.5864697,13.7647059 43.5864697,13.7647059 L43.5610103,13.7647059 C43.5355509,13.7647059 43.5100915,13.789916 43.5100915,13.8403361 L42.3135004,21.1764706 C42.3389598,21.2016807 42.3644191,21.2521008 42.3898785,21.2521008 Z M30.2457512,16.3361345 C30.5258044,16.7647059 30.7040201,17.2689076 30.7549389,17.7731092 C30.7549389,17.7983193 30.7803983,17.8235294 30.8058577,17.8487395 L39.5129679,21.5546218 L39.5384272,21.5546218 C39.5638866,21.5546218 39.589346,21.5546218 39.589346,21.5294118 C39.8439399,21.3277311 40.1494525,21.1764706 40.4804245,21.0756303 C40.5058839,21.0756303 40.5313433,21.0504202 40.5313433,21 L41.957069,12.1512605 C41.957069,12.1260504 41.957069,12.1008403 41.9316096,12.0756303 L36.4833009,6.65546218 C36.4578415,6.6302521 36.4578415,6.6302521 36.4323821,6.6302521 C36.4069227,6.6302521 36.3814633,6.65546218 36.3814633,6.68067227 L30.2457512,16.210084 C30.2202918,16.2605042 30.2202918,16.3109244 30.2457512,16.3361345 Z M59.9823146,29.9747899 L50.6387198,20.697479 C50.6132604,20.6722689 50.587801,20.6722689 50.587801,20.6722689 L50.5623416,20.6722689 L44.2229544,23.3697479 C44.197495,23.394958 44.1720356,23.4201681 44.1720356,23.4453782 C44.1720356,23.4705882 44.197495,23.5210084 44.2229544,23.5210084 L59.8550177,30.1512605 L59.8804771,30.1512605 C59.9059364,30.1512605 59.9313958,30.1512605 59.9313958,30.1260504 L59.9823146,30.0756303 C60.0332334,30.0756303 60.0332334,30 59.9823146,29.9747899 Z M58.429292,31.487395 L43.4337134,25.1344538 L43.408254,25.1344538 C43.3827946,25.1344538 43.3573352,25.1344538 43.3318758,25.1596639 C42.9245256,25.7142857 42.3135004,26.0672269 41.6006375,26.1680672 C41.5751782,26.1680672 41.5242594,26.1932773 41.5242594,26.2436975 L39.920318,36.1008403 C39.920318,36.1260504 39.920318,36.1512605 39.9457774,36.1764706 C40.5058839,36.605042 40.836856,37.2352941 40.9132341,37.9411765 C40.9132341,37.9915966 40.9386935,38.0168067 40.9896123,38.0168067 L50.0531539,39.907563 L50.0786133,39.907563 C50.1040726,39.907563 50.129532,39.907563 50.129532,39.8823529 L58.429292,31.6386555 C58.4547514,31.6134454 58.4547514,31.5882353 58.4547514,31.5630252 C58.4547514,31.5378151 58.4547514,31.512605 58.429292,31.487395 Z M38.5709706,23.0672269 L30.3730481,19.5882353 L30.3475887,19.5882353 C30.3221293,19.5882353 30.2966699,19.6134454 30.2712106,19.6386555 C29.7111041,20.4957983 28.7691067,21 27.7507313,21 C27.597975,21 27.4452187,20.9747899 27.2670029,20.9495798 L27.2415436,20.9495798 C27.2160842,20.9495798 27.1906248,20.9747899 27.1651654,21 L20.418428,31.4621849 C20.3929686,31.487395 20.3929686,31.5378151 20.418428,31.5630252 C20.4438874,31.5882353 20.4693467,31.5882353 20.4948061,31.5882353 L20.5202655,31.5882353 L38.5200518,23.8991597 C38.5455112,23.8739496 38.5709706,23.8487395 38.5709706,23.8235294 L38.5709706,23.7226891 L38.5709706,23.5966387 C38.5709706,23.4453782 38.5964299,23.2941176 38.6218893,23.1680672 C38.6218893,23.1176471 38.5964299,23.092437 38.5709706,23.0672269 Z M48.4492125,41.3697479 L40.4804245,39.7310924 L40.4549652,39.7310924 C40.4295058,39.7310924 40.4040464,39.7563025 40.378587,39.7563025 C40.0730744,40.1344538 39.6911836,40.4369748 39.2329146,40.6134454 C39.2074552,40.6134454 39.1819958,40.6638655 39.1819958,40.6890756 L37.2725418,52.4369748 C37.2725418,52.487395 37.2980012,52.512605 37.3234606,52.5378151 L37.3743794,52.5378151 C37.3998388,52.5378151 37.4252982,52.5378151 37.4252982,52.512605 L48.4746719,41.5462185 C48.5001313,41.5210084 48.5001313,41.4957983 48.5001313,41.4705882 C48.5001313,41.394958 48.4746719,41.3697479 48.4492125,41.3697479 Z M37.3234606,40.5630252 C36.559679,40.2605042 35.9995725,39.5798319 35.7958974,38.7983193 C35.7958974,38.7731092 35.770438,38.7478992 35.7195193,38.7226891 L20.9530751,35.6722689 C20.9530751,35.6722689 20.9530751,35.6722689 20.9276157,35.6722689 C20.9021563,35.6722689 20.8766969,35.697479 20.8512375,35.7226891 C20.7748594,35.8487395 20.7239406,35.9495798 20.6475625,36.0504202 C20.6221031,36.0756303 20.6221031,36.1260504 20.6475625,36.1512605 L34.0901185,55.6134454 C34.1155779,55.6386555 34.1155779,55.6386555 34.1410373,55.6386555 C34.1664967,55.6386555 34.1919561,55.6386555 34.1919561,55.6134454 L35.0066564,54.8067227 C35.0066564,54.7815126 35.0321158,54.7815126 35.0321158,54.7563025 L37.3234606,40.6386555 C37.3743794,40.6386555 37.3743794,40.5882353 37.3234606,40.5630252 Z M21.2585877,33.8823529 C21.2585877,33.9327731 21.2840471,33.9579832 21.3349659,33.9579832 L35.9741131,36.9831933 L35.9995725,36.9831933 C36.0250319,36.9831933 36.0504913,36.9579832 36.0759507,36.9327731 C36.5087602,36.1764706 37.2725418,35.6722689 38.138161,35.6218487 C38.1890798,35.6218487 38.2145391,35.5966387 38.2145391,35.5462185 L39.7930211,25.8403361 C39.7930211,25.8151261 39.7930211,25.7647059 39.7421023,25.7647059 C39.6402648,25.6890756 39.5384272,25.6134454 39.4111303,25.487395 C39.3856709,25.4621849 39.3602115,25.4621849 39.3602115,25.4621849 L39.3347521,25.4621849 L21.2331283,33.2016807 C21.1822096,33.2268908 21.1822096,33.2521008 21.1822096,33.302521 C21.207669,33.5042017 21.2585877,33.6806723 21.2585877,33.8823529 Z M15.1228756,36.3277311 C15.0464974,36.2268908 14.9701193,36.1260504 14.8937411,36 C14.8682817,35.9747899 14.8428223,35.9495798 14.8173629,35.9495798 L14.7919036,35.9495798 L8.47797571,38.6470588 C8.45251632,38.6470588 8.42705693,38.6722689 8.42705693,38.697479 C8.42705693,38.7226891 8.42705693,38.7478992 8.45251632,38.7731092 L11.5331021,41.8235294 C11.5585615,41.8487395 11.5840209,41.8487395 11.5840209,41.8487395 C11.6094802,41.8487395 11.6349396,41.8235294 11.660399,41.7983193 L15.148335,36.3781513 C15.148335,36.3781513 15.148335,36.3529412 15.1228756,36.3277311 Z M19.298215,37.3109244 C19.2727556,37.2857143 19.2472962,37.2605042 19.2218368,37.2605042 L19.1963774,37.2605042 C18.7381085,37.4621849 18.2798395,37.5630252 17.7961112,37.5630252 C17.4142204,37.5630252 17.057789,37.512605 16.6758982,37.3865546 L16.6504388,37.3865546 C16.6249794,37.3865546 16.59952,37.4117647 16.5740606,37.4369748 L12.907909,43.1344538 L12.8824496,43.1596639 C12.8569902,43.1848739 12.8569902,43.2352941 12.8824496,43.2605042 L29.7365634,59.9747899 C29.7620228,60 29.7874822,60 29.7874822,60 C29.8129416,60 29.838401,60 29.838401,59.9747899 L32.7916898,57.0252101 C32.8171492,57 32.8171492,56.9495798 32.7916898,56.9243697 L19.298215,37.3109244 Z M16.930492,30.7310924 C16.9559514,30.7563025 16.9814108,30.7815126 17.0068702,30.7815126 L17.0323296,30.7815126 C17.2869234,30.7310924 17.5669767,30.6806723 17.8215706,30.6806723 C18.1016238,30.6806723 18.4071364,30.7310924 18.6871897,30.8067227 L18.7126491,30.8067227 C18.7381085,30.8067227 18.7635679,30.7815126 18.7890272,30.7563025 L25.6121428,20.1680672 C25.6376022,20.1428571 25.6376022,20.092437 25.6121428,20.0672269 C25.0774957,19.512605 24.7719831,18.7815126 24.7719831,18 C24.7719831,17.7731092 24.7974425,17.5462185 24.8483612,17.3193277 C24.8483612,17.2689076 24.8229018,17.2436975 24.7974425,17.2184874 C23.9318233,16.8403361 16.268548,13.6134454 16.268548,13.5882353 L16.2430886,13.5882353 C16.2176292,13.5882353 16.1921698,13.5882353 16.1921698,13.6134454 L9.70002626,20.0672269 C9.67456687,20.092437 9.67456687,20.1428571 9.70002626,20.1680672 L16.930492,30.7310924 Z M17.6688142,12.2773109 C17.6688142,12.2773109 25.4084677,15.5546218 25.7394398,15.7058824 L25.7648991,15.7058824 C25.7903585,15.7058824 25.7903585,15.7058824 25.8158179,15.6806723 C26.350465,15.2521008 27.0378685,15 27.7252719,15 C28.0562439,15 28.387216,15.0504202 28.718188,15.1512605 L28.7436474,15.1512605 C28.7691067,15.1512605 28.7945661,15.1260504 28.8200255,15.1008403 L35.108494,5.34453782 C35.1339534,5.31932773 35.1339534,5.26890756 35.108494,5.24369748 L29.8893198,0.0756302521 C29.8638604,0.0504201681 29.8638604,0.0504201681 29.838401,0.0504201681 C29.8129416,0.0504201681 29.7874822,0.0504201681 29.7874822,0.0756302521 L17.6688142,12.1260504 C17.6433548,12.1512605 17.6433548,12.1764706 17.6433548,12.2016807 C17.6178955,12.2521008 17.6433548,12.2521008 17.6688142,12.2773109 Z M14.6646066,32.5714286 C14.690066,32.5714286 14.7155254,32.5462185 14.7409848,32.5210084 C14.8937411,32.2184874 15.1228756,31.9411765 15.3520101,31.6890756 C15.3774694,31.6638655 15.3774694,31.6134454 15.3520101,31.5882353 C15.2756319,31.487395 8.37613816,21.5042017 8.37613816,21.4789916 C8.35067877,21.4537815 8.35067877,21.4537815 8.29976,21.4285714 C8.27430061,21.4285714 8.24884123,21.4285714 8.24884123,21.4537815 L0.203675092,29.4201681 C0.178215706,29.4453782 0.178215706,29.4705882 0.178215706,29.4957983 C0.178215706,29.5210084 0.203675092,29.5462185 0.254593865,29.5462185 L14.6646066,32.5714286 C14.6391472,32.5714286 14.6391472,32.5714286 14.6646066,32.5714286 Z M14.0026626,34.3109244 C14.0026626,34.2605042 13.9772032,34.2352941 13.9262844,34.2352941 L1.42572564,31.6386555 C1.42572564,31.6386555 1.42572564,31.6386555 1.40026626,31.6386555 C1.37480687,31.6386555 1.34934748,31.6638655 1.3238881,31.6890756 C1.29842871,31.7142857 1.3238881,31.7647059 1.34934748,31.789916 L6.92495313,37.3361345 C6.95041252,37.3613445 6.9758719,37.3613445 6.9758719,37.3613445 L7.00133129,37.3613445 L13.9262844,34.4117647 C13.9772032,34.3613445 14.0026626,34.3361345 14.0026626,34.3109244 Z" id="Combined-Shape" fill="url(#radialGradient-1)"></path>
                                                    <path d="M121.950461,15.1008403 L126.023963,15.1008403 L126.023963,41.3697479 L121.950461,41.3697479 L121.950461,15.1008403 Z M80.2734456,22.512605 C78.0839384,22.512605 76.3272407,23.3445378 74.9778933,24.9831933 L74.8505963,22.8403361 L71.0316883,22.8403361 L71.0316883,41.3445378 L75.1051902,41.3445378 L75.1051902,28.1848739 C75.9198906,26.6722689 77.1419411,25.9159664 78.7713418,25.9159664 C79.8915548,25.9159664 80.7062552,26.1932773 81.2154429,26.7731092 C81.7246307,27.3277311 81.9537652,28.210084 81.9537652,29.3697479 L81.9537652,41.3445378 L86.027267,41.3445378 L86.027267,29.1176471 C85.9763482,24.7310924 84.0668942,22.512605 80.2734456,22.512605 Z M97.8658817,22.512605 C96.3128591,22.512605 94.9125929,22.9159664 93.6396236,23.7226891 C92.3666542,24.5294118 91.3991975,25.6638655 90.6863347,27.1260504 C89.9989313,28.5882353 89.6424999,30.2268908 89.6424999,32.0672269 L89.6424999,32.5714286 C89.6424999,35.3193277 90.4572002,37.5378151 92.0611416,39.2016807 C93.6650829,40.8655462 95.7527526,41.697479 98.3496101,41.697479 C99.8517139,41.697479 101.226521,41.394958 102.448571,40.789916 C103.670622,40.1848739 104.638079,39.3277311 105.350941,38.2184874 L103.161434,36.0756303 C101.990302,37.6134454 100.462739,38.394958 98.6042039,38.394958 C97.2803158,38.394958 96.1601028,37.9411765 95.2944837,37.0588235 C94.4034052,36.1764706 93.9196768,34.9663866 93.7923799,33.4285714 L105.656454,33.4285714 L105.656454,31.7647059 C105.656454,28.8151261 104.969051,26.5462185 103.645162,24.9327731 C102.244896,23.3193277 100.335442,22.512605 97.8658817,22.512605 Z M101.582952,30.3781513 L93.8178393,30.3781513 C93.996055,28.9411765 94.4543239,27.8319328 95.1417274,27.0504202 C95.8291308,26.2436975 96.7456687,25.8655462 97.8658817,25.8655462 C98.9860947,25.8655462 99.8771733,26.2184874 100.513658,26.9243697 C101.150143,27.6302521 101.506574,28.6890756 101.608412,30.0756303 L101.608412,30.3781513 L101.582952,30.3781513 Z M114.821833,37.789916 C114.54178,37.487395 114.414483,36.9579832 114.414483,36.2521008 L114.414483,25.9159664 L117.622366,25.9159664 L117.622366,22.8403361 L114.414483,22.8403361 L114.414483,18.3529412 L110.340981,18.3529412 L110.340981,22.8403361 L107.362233,22.8403361 L107.362233,25.9159664 L110.340981,25.9159664 L110.340981,36.4033613 C110.340981,39.9327731 111.919463,41.697479 115.050968,41.697479 C115.916587,41.697479 116.807665,41.5714286 117.749663,41.2941176 L117.749663,38.0672269 C117.265934,38.1932773 116.782206,38.2436975 116.323937,38.2436975 C115.585615,38.2689076 115.101886,38.1176471 114.821833,37.789916 Z M132.337891,22.8655462 L136.411393,22.8655462 L136.411393,41.3697479 L132.337891,41.3697479 L132.337891,22.8655462 Z M159.528516,35.4201681 L155.684148,22.8655462 L151.279675,22.8655462 L157.669981,41.2689076 L157.084415,42.8571429 C156.778902,43.7647059 156.371552,44.394958 155.836905,44.7731092 C155.327717,45.1512605 154.538476,45.3529412 153.520101,45.3529412 L152.756319,45.302521 L152.756319,48.5294118 C153.469182,48.7310924 154.131126,48.8319328 154.716692,48.8319328 C157.364468,48.8319328 159.248463,47.2689076 160.368676,44.1680672 L167.599141,22.8655462 L163.245586,22.8655462 L159.528516,35.4201681 Z M144.40564,16.4117647 C143.285427,17.5210084 142.725321,19.1092437 142.725321,21.1764706 L142.725321,22.8655462 L139.950248,22.8655462 L139.950248,25.9411765 L142.725321,25.9411765 L142.725321,41.3697479 L146.798823,41.3697479 L146.798823,25.9411765 L150.490434,25.9411765 L150.490434,22.8655462 L146.798823,22.8655462 L146.798823,21.2268908 C146.798823,19.1848739 147.766279,18.1764706 149.726652,18.1764706 C150.312218,18.1764706 150.846865,18.2268908 151.279675,18.302521 L151.381512,15.0504202 C150.566812,14.8487395 149.82849,14.7478992 149.090167,14.7478992 C147.104335,14.7226891 145.525853,15.302521 144.40564,16.4117647 Z M136.411393,14.7226891 L136.411393,18.3529412 L132.337891,18.3529412 L132.337891,14.7226891 L136.411393,14.7226891 Z" id="Combined-Shape" fill="url(#linearGradient-2)"></path>
                                                </g>
                                            </g>
                                        </g>
                                    </g>
                                </g>
                            </g>
                        </g>
                    </g>
                </g>
            </g>
        </g>
    </g>
</svg>

<svg viewBox="-3.34 -3.34 173.68 65.68" xmlns="http://www.w3.org/2000/svg"><title>Netlify</title><defs><radialGradient id="a" cx="50%" cy="0%" r="100%" fx="50%" fy="0%"><stop offset="0%" stop-color="#20C6B7"/><stop offset="100%" stop-color="#4D9ABF"/></radialGradient><linearGradient id="b" x1="67.028%" x2="67.028%" y1="84.714%" y2="0%"><stop offset="0%" stop-color="#313D3E"/><stop offset="100%" stop-color="#425253"/></linearGradient></defs><g fill="none" fill-rule="evenodd"><path fill="url(#a)" d="M42.39 21.252c.305.151.56.353.764.58.025.025.025.025.05.025h.026l5.856-2.496c.025-.025.05-.05.05-.075 0-.025 0-.05-.025-.076l-5.474-5.42c-.025-.025-.05-.025-.05-.025h-.026c-.025 0-.05.025-.05.075l-1.197 7.336c.025.026.05.076.076.076zm-12.144-4.916c.28.429.458.933.509 1.437 0 .025.025.05.05.076l8.708 3.706h.025c.026 0 .051 0 .051-.026a2.7 2.7 0 0 1 .891-.453c.026 0 .051-.026.051-.076l1.426-8.849c0-.025 0-.05-.025-.075l-5.449-5.42c-.025-.026-.025-.026-.05-.026-.026 0-.052.025-.052.05l-6.135 9.53c-.026.05-.026.1 0 .126zm29.736 13.639l-9.343-9.278c-.026-.025-.051-.025-.051-.025h-.026l-6.339 2.698c-.026.025-.051.05-.051.075 0 .026.025.076.051.076l15.632 6.63h.025c.026 0 .051 0 .051-.025l.051-.05c.051 0 .051-.076 0-.101zm-1.553 1.512l-14.995-6.353h-.026c-.025 0-.05 0-.076.026-.407.554-1.018.907-1.731 1.008-.026 0-.077.025-.077.076L39.92 36.1c0 .025 0 .05.026.075.56.429.89 1.06.967 1.765 0 .05.026.076.077.076l9.063 1.89h.026c.025 0 .05 0 .05-.025l8.3-8.243c.026-.026.026-.05.026-.076 0-.025 0-.05-.026-.076zm-19.858-8.42l-8.198-3.479h-.025c-.026 0-.051.025-.077.05A2.997 2.997 0 0 1 27.751 21c-.153 0-.306-.025-.484-.05h-.025c-.026 0-.051.025-.077.05l-6.747 10.462a.076.076 0 0 0 0 .101c.026.025.051.025.077.025h.025l18-7.689c.026-.025.051-.05.051-.075v-.227a2.2 2.2 0 0 1 .05-.429c0-.05-.025-.076-.05-.1zm9.878 18.303l-7.969-1.64h-.025c-.025 0-.051.025-.076.025a2.748 2.748 0 0 1-1.146.857c-.026 0-.051.05-.051.076l-1.91 11.748c0 .05.026.076.051.1h.051c.026 0 .051 0 .051-.024l11.05-10.967c.025-.025.025-.05.025-.075 0-.076-.025-.101-.05-.101zm-11.126-.807c-.763-.302-1.323-.983-1.527-1.765 0-.025-.026-.05-.076-.075l-14.767-3.05h-.025c-.026 0-.051.024-.077.05-.076.126-.127.227-.203.327a.076.076 0 0 0 0 .101L34.09 55.613c.026.026.026.026.051.026.025 0 .051 0 .051-.026l.815-.806c0-.025.025-.025.025-.05l2.291-14.118c.051 0 .051-.05 0-.076zm-16.064-6.68c0 .05.025.075.076.075l14.64 3.025H36c.025 0 .05-.025.076-.05.433-.757 1.197-1.26 2.062-1.311.051 0 .077-.025.077-.076l1.578-9.706c0-.025 0-.075-.05-.075a2.71 2.71 0 0 1-.332-.278c-.025-.025-.05-.025-.05-.025h-.026l-18.102 7.74c-.05.025-.05.05-.05.1.025.202.076.379.076.58zm-6.136 2.445a3.687 3.687 0 0 1-.23-.328c-.025-.025-.05-.05-.076-.05h-.025l-6.314 2.697a.054.054 0 0 0-.05.05c0 .026 0 .05.025.076l3.08 3.05c.026.026.051.026.051.026.025 0 .05-.025.076-.05l3.488-5.42s0-.026-.025-.051zm4.175.983c-.025-.025-.05-.05-.076-.05h-.026a3.416 3.416 0 0 1-1.4.302c-.382 0-.738-.05-1.12-.176h-.026c-.025 0-.05.025-.076.05l-3.666 5.697-.026.026a.076.076 0 0 0 0 .1l16.855 16.715a.08.08 0 0 0 .05.025c.026 0 .051 0 .051-.025l2.954-2.95a.076.076 0 0 0 0-.1L19.298 37.31zm-2.368-6.58c.026.025.051.05.077.05h.025c.255-.05.535-.1.79-.1.28 0 .585.05.865.126h.026c.025 0 .05-.025.076-.05l6.823-10.589a.076.076 0 0 0 0-.1 2.967 2.967 0 0 1-.764-2.749c0-.05-.025-.075-.05-.1-.866-.379-8.53-3.606-8.53-3.63h-.025c-.025 0-.05 0-.05.024L9.7 20.067a.076.076 0 0 0 0 .101l7.23 10.563zm.739-18.454s7.74 3.278 8.07 3.429h.026c.025 0 .025 0 .05-.025a3.096 3.096 0 0 1 1.91-.681c.331 0 .662.05.993.151h.026c.025 0 .05-.025.076-.05l6.288-9.756a.076.076 0 0 0 0-.101L29.89.076C29.864.05 29.864.05 29.84.05c-.026 0-.052 0-.052.026L17.67 12.126c-.026.025-.026.05-.026.076-.025.05 0 .05.026.075zm-3.004 20.294c.025 0 .05-.025.076-.05.153-.303.382-.58.611-.832a.076.076 0 0 0 0-.1c-.076-.102-6.976-10.085-6.976-10.11-.025-.025-.025-.025-.076-.05-.026 0-.051 0-.051.025L.204 29.42c-.026.025-.026.05-.026.076 0 .025.026.05.077.05l14.41 3.025c-.026 0-.026 0 0 0zm-.662 1.74c0-.05-.026-.076-.077-.076l-12.5-2.596H1.4c-.025 0-.05.025-.076.05-.026.025 0 .076.025.1l5.576 5.547c.025.025.05.025.05.025h.026l6.925-2.95c.051-.05.077-.075.077-.1z"/><path fill="url(#b)" d="M121.95 15.1h4.074v26.27h-4.074V15.1zm-41.677 7.413c-2.19 0-3.946.832-5.295 2.47l-.127-2.143h-3.82v18.505h4.074v-13.16c.815-1.513 2.037-2.269 3.666-2.269 1.12 0 1.935.277 2.444.857.51.555.739 1.437.739 2.597v11.975h4.073V29.118c-.05-4.387-1.96-6.605-5.754-6.605zm17.593 0c-1.553 0-2.953.403-4.226 1.21-1.273.806-2.24 1.94-2.954 3.403-.687 1.462-1.044 3.1-1.044 4.941v.504c0 2.748.815 4.967 2.42 6.63 1.603 1.665 3.69 2.496 6.288 2.496 1.502 0 2.877-.302 4.099-.907 1.222-.605 2.19-1.462 2.902-2.572l-2.19-2.142c-1.17 1.537-2.698 2.319-4.557 2.319-1.324 0-2.444-.454-3.31-1.336-.89-.883-1.374-2.093-1.502-3.63h11.864v-1.664c0-2.95-.687-5.219-2.01-6.832-1.401-1.614-3.31-2.42-5.78-2.42zm3.717 7.865h-7.765c.178-1.437.636-2.546 1.324-3.328.687-.806 1.604-1.184 2.724-1.184s2.011.352 2.648 1.058c.636.706.993 1.765 1.094 3.152v.302h-.025zm13.239 7.412c-.28-.303-.408-.832-.408-1.538V25.916h3.208V22.84h-3.208v-4.487h-4.073v4.487h-2.979v3.076h2.979v10.487c0 3.53 1.578 5.294 4.71 5.294.866 0 1.757-.126 2.699-.403v-3.227a5.66 5.66 0 0 1-1.426.177c-.738.025-1.222-.126-1.502-.454zm17.516-14.924h4.073V41.37h-4.073V22.866zm27.19 12.554l-3.844-12.554h-4.404l6.39 18.403-.586 1.588c-.305.908-.712 1.538-1.247 1.916-.51.378-1.299.58-2.317.58l-.764-.05v3.226c.713.202 1.375.303 1.96.303 2.648 0 4.532-1.563 5.653-4.664l7.23-21.302h-4.353l-3.717 12.554zm-15.122-19.008c-1.12 1.109-1.68 2.697-1.68 4.764v1.69h-2.776v3.075h2.775V41.37h4.074V25.94h3.691v-3.075h-3.69v-1.64c0-2.041.967-3.05 2.928-3.05.585 0 1.12.05 1.553.127l.102-3.253c-.815-.201-1.554-.302-2.292-.302-1.986-.025-3.564.555-4.684 1.664zm-7.995-1.69v3.63h-4.073v-3.63h4.073z"/></g></svg>
